src/24/actions/view-calendar-tasks.svg

<svg xmlns="http://www.w3.org/2000/svg" viewBox="0 0 24 24"><path d="M5 4v2H4v1h1v1H4v1h1v6H4v1h1v1H4v1h1v2h15V4H5zm3 1h11v14H8V5zm1 2v2h2V7H9zm3 0v1h6V7h-6zm-3 4v2h2v-2H9zm3 0v1h6v-1h-6zm-3 4v2h2v-2H9zm3 0v1h6v-1h-6z" fill="currentColor" color="#5d656b"/></svg>

<svg xmlns="http://www.w3.org/2000/svg" viewBox="0 0 24 24">
  <defs id="defs3051">
    <style type="text/css" id="current-color-scheme">
      .ColorScheme-Text {
        color:#5d656b;
      }
      </style>
  </defs>
  <path
     style="fill:currentColor;fill-opacity:1;stroke:none" 
     d="M 5 4 L 5 6 L 4 6 L 4 7 L 5 7 L 5 8 L 4 8 L 4 9 L 5 9 L 5 15 L 4 15 L 4 16 L 5 16 L 5 17 L 4 17 L 4 18 L 5 18 L 5 20 L 8 20 L 20 20 L 20 19 L 20 4 L 8 4 L 5 4 z M 8 5 L 10 5 L 11 5 L 19 5 L 19 7 L 19 8 L 19 10 L 19 11 L 19 13 L 19 14 L 19 16 L 19 17 L 19 19 L 11 19 L 10 19 L 8 19 L 8 17 L 8 16 L 8 14 L 8 13 L 8 11 L 8 10 L 8 8 L 8 7 L 8 5 z M 9 7 L 9 9 L 11 9 L 11 7 L 9 7 z M 12 7 L 12 8 L 18 8 L 18 7 L 12 7 z M 9 11 L 9 13 L 11 13 L 11 11 L 9 11 z M 12 11 L 12 12 L 18 12 L 18 11 L 12 11 z M 9 15 L 9 17 L 11 17 L 11 15 L 9 15 z M 12 15 L 12 16 L 18 16 L 18 15 L 12 15 z "
     class="ColorScheme-Text"
     />
</svg>
